src/components/Careers/Benefits/images/company-offsites.svg

<svg xmlns="http://www.w3.org/2000/svg" width="60" height="61" fill="none" viewBox="0 0 60 61"><path fill="#FF1794" fill-opacity=".2" d="M34.2059 15.9658C35.2689 16.2944 36.4264 16.0077 37.2131 15.2209L47.5582 4.87586C47.8069 4.62722 48.0973 4.42423 48.4162 4.27616L55.524 0.9761C57.9253 -0.138792 60.4883 2.17661 59.6223 4.67846L57.6219 10.4574C57.4978 10.8159 57.3069 11.1476 57.0592 11.4349L45.9797 24.2871C45.3262 25.0451 45.0938 26.079 45.3599 27.0437L52.4084 52.5945C52.7274 53.7506 52.327 54.9856 51.3905 55.7348L50.4627 56.4771C49.0985 57.5685 47.094 57.2679 46.1099 55.8245L34.9738 39.4916C33.9145 37.9379 31.7034 37.7306 30.3738 39.0603L24.7687 44.6654C24.2323 45.2018 23.919 45.9215 23.892 46.6796L23.5038 57.5473C23.4614 58.7343 22.7227 59.7845 21.6199 60.2257L21.2195 60.3858C19.6812 61.0012 17.9352 60.2529 17.3199 58.7146L14.4341 51.5L13.892 49.6025C13.6072 48.6059 12.8282 47.8269 11.8315 47.5421L9.93408 47L2.4888 43.8092C0.854648 43.1088 0.184656 41.149 1.04808 39.5948L1.07682 39.5431C1.60593 38.5907 2.60979 38 3.69929 38H13.1461C13.9685 38 14.7548 37.6624 15.3211 37.0662L21.4514 30.6133C22.7429 29.2539 22.4847 27.0562 20.9135 26.0331L5.5347 16.019C3.93715 14.9787 3.70237 12.7317 5.05039 11.3837L7.15503 9.27905C7.94176 8.49232 9.09928 8.20561 10.1623 8.53417L34.2059 15.9658Z"/><path stroke="#FF1794" stroke-opacity=".6" stroke-width="2" d="M33.9106 16.9212C35.3279 17.3593 36.8713 16.977 37.9202 15.9281L48.2653 5.58297C48.4311 5.41721 48.6247 5.28188 48.8373 5.18317L55.9451 1.88311C57.546 1.13985 59.2547 2.68345 58.6773 4.35135L56.6769 10.1303C56.5942 10.3693 56.4669 10.5904 56.3018 10.7819L45.2223 23.6342C44.351 24.6448 44.0411 26.0233 44.3959 27.3096L51.4444 52.8604C51.657 53.6312 51.3902 54.4545 50.7658 54.954L49.838 55.6963C48.9285 56.4238 47.5922 56.2235 46.9361 55.2612L35.8 38.9283C34.3876 36.8567 31.4396 36.5803 29.6667 38.3532L24.0616 43.9583C23.3464 44.6735 22.9287 45.6331 22.8926 46.6439L22.5045 57.5116C22.4762 58.303 21.9837 59.0031 21.2485 59.2972L20.8481 59.4573C19.8226 59.8676 18.6586 59.3687 18.2484 58.3432L15.3816 51.1761L14.8535 49.3278C14.4738 47.999 13.4351 46.9603 12.1063 46.5806L10.2697 46.0559L2.88272 42.89C1.79328 42.4231 1.34662 41.1166 1.92224 40.0804L1.95098 40.0287C2.30372 39.3938 2.97296 39 3.69929 39H13.1461C14.2426 39 15.291 38.5499 16.0461 37.755L22.1764 31.3021C23.8983 29.4895 23.5541 26.5593 21.4591 25.1951L6.08037 15.181C5.01534 14.4875 4.85882 12.9895 5.7575 12.0908L7.86213 9.98616C8.38662 9.46167 9.1583 9.27053 9.86696 9.48957L33.9106 16.9212Z"/></svg>

<svg fill="none" viewBox="0 0 60 61"><path fill="#FF1794" fill-opacity=".2" d="M34.206 15.966a3 3 0 003.007-.745L47.558 4.876a3.01 3.01 0 01.858-.6l7.108-3.3c2.401-1.115 4.964 1.2 4.098 3.702l-2 5.78a3 3 0 01-.563.977L45.98 24.287a3 3 0 00-.62 2.757l7.05 25.55a3 3 0 01-1.018 3.14l-.928.743a3 3 0 01-4.353-.652L34.974 39.492a3 3 0 00-4.6-.432l-5.605 5.605a3 3 0 00-.877 2.015l-.388 10.867a3 3 0 01-1.884 2.679l-.4.16a3 3 0 01-3.9-1.671L14.434 51.5l-.542-1.898a3 3 0 00-2.06-2.06L9.934 47 2.49 43.81a3 3 0 01-1.44-4.215l.028-.052A3 3 0 013.699 38h9.447a3 3 0 002.175-.934l6.13-6.453a3 3 0 00-.538-4.58L5.535 16.02a3 3 0 01-.485-4.635L7.155 9.28a3 3 0 013.007-.745l24.044 7.432z"/><path stroke="#FF1794" stroke-opacity=".6" stroke-width="2" d="M33.91 16.921a4 4 0 004.01-.993L48.265 5.583a2 2 0 01.572-.4l7.108-3.3c1.601-.743 3.31.8 2.732 2.468l-2 5.78c-.083.238-.21.46-.375.65l-11.08 12.853a4 4 0 00-.826 3.676l7.048 25.55a2 2 0 01-.678 2.094l-.928.742a2 2 0 01-2.902-.435L35.8 38.928a4 4 0 00-6.133-.575l-5.605 5.605a4 4 0 00-1.17 2.686l-.387 10.868a2 2 0 01-1.256 1.785l-.4.16a2 2 0 01-2.6-1.114l-2.867-7.167-.528-1.848a4 4 0 00-2.748-2.747l-1.836-.525-7.387-3.166a2 2 0 01-.96-2.81l.028-.051A2 2 0 013.699 39h9.447a4 4 0 002.9-1.245l6.13-6.453a4 4 0 00-.717-6.107L6.08 15.181a2 2 0 01-.322-3.09l2.104-2.105a2 2 0 012.005-.496l24.044 7.431z"/></svg>
